X:2830
T:Chanson à boire
C:trad
H:Chanson de trouvère
A:Bas-Maine
O:France
M:4/4
L:1/4
Q:1/4=190
K:F
D4|E2E2|GGGG|F2F2|E>FGA|AG/2F/2G2|A4|z2E2|F2F2|E3/2F/2G/2A/2B|BA/2G/2A2|
B2 zG|G2G2|A2A2|G>A B/2A/2G/2F/2|E>F GF|FE2D|E4|z2E2|F2G2|A2B2|GGAA|G2FG
|G/2F/2E/2D/2E2|F2 zG|GGA2|G2 zG|FEED|E d cB|A>G A2|B2cB|cBAB|BA2G|A4||


